icon/lg/nx.svg

<?xml version="1.0" encoding="UTF-8"?>
<svg viewBox="0 0 256 160" version="1.1" xmlns="http://www.w3.org/2000/svg" xmlns:xlink="http://www.w3.org/1999/xlink" preserveAspectRatio="xMidYMid" height="1em" width="1em">
  <g>
    <path d="M39.3706931,0 L95.3349985,94.219626 L95.3839183,51.5713031 L127.856913,102.330537 L94.4446573,154.841101 L39.0576061,64.9557733 L38.9304145,159.057992 L0,159.057992 L0,0 L39.3706931,0 Z M134.265413,44.4681135 L150.467666,69.9064618 L150.67313,70.2586847 C161.261123,54.1494391 179.249253,44.4547533 198.526524,44.4681135 C229.773979,44.4681135 255.181569,70.9153434 255.800517,102.050931 L255.811666,103.10347 L255.782314,103.10347 L255.781361,103.498619 C255.724961,106.084053 254.344065,108.468509 252.112927,109.801474 C249.802104,111.182044 246.930291,111.224935 244.57927,109.91399 C242.30932,108.648248 240.857833,106.306095 240.724248,103.723498 L240.715001,103.445909 L240.710536,103.088248 C240.586182,98.1642523 237.877866,96.1660002 234.321295,94.6925285 L233.794967,94.480366 L233.794967,94.480366 L233.257738,94.2740238 L233.257738,94.2740238 L232.710815,94.0718297 L232.710815,94.0718297 L229.873116,93.0645553 L229.873116,93.0645553 L229.29342,92.8521347 L229.29342,92.8521347 L228.712493,92.6321571 L228.712493,92.6321571 L228.131544,92.4029504 C228.034785,92.3638873 227.938075,92.3243699 227.841439,92.2843636 L227.262723,92.0381779 L227.262723,92.0381779 L226.687007,91.7785829 C224.391752,90.711154 222.197502,89.2817663 220.4524,87.0088405 L220.247752,86.7352325 L220.247752,86.7352325 L220.044288,86.4502519 L220.044288,86.4502519 L219.739841,86.002982 L219.739841,86.002982 L219.331787,85.3733228 L219.331787,85.3733228 L218.042007,83.308974 L218.042007,83.308974 L217.572299,82.5809854 L217.572299,82.5809854 L217.201383,82.0277042 L217.201383,82.0277042 L216.943972,81.6566854 L216.943972,81.6566854 L216.540977,81.0986527 L216.540977,81.0986527 L216.260082,80.7266442 L216.260082,80.7266442 L215.968617,80.3554594 C215.919122,80.2937026 215.869158,80.2320092 215.818712,80.1703937 L215.510135,79.8017513 C212.469107,76.2494875 207.711324,73.0569 198.506956,73.0569 C190.895407,73.0543035 183.594861,76.0768299 178.212682,81.4590085 C172.830504,86.8411871 169.807977,94.1417329 169.810574,101.753282 C169.831508,102.838515 170.088497,103.904835 170.56213,104.878606 L170.710699,105.167888 L204.954592,159.057992 L167.18847,159.057992 L150.467666,133.825134 L134.040382,159.057992 L96.2840435,159.057992 L132.328187,102.310969 L95.3937023,44.4681135 L134.265413,44.4681135 Z M255.850802,111.224165 C256.234605,113.906735 255.854829,116.643166 254.754997,119.119828 C253.433303,122.177748 251.569335,122.730878 250.327373,122.70232 L250.120776,122.692086 L250.120776,122.692086 L249.927669,122.672607 L249.927669,122.672607 L249.749354,122.646039 L249.749354,122.646039 L249.512471,122.597601 L249.512471,122.597601 L249.316204,122.545321 L249.316204,122.545321 L249.063117,122.458296 L249.063117,122.458296 L248.971244,122.415621 L248.971244,122.415621 L248.859777,122.352863 L248.859777,122.352863 L248.692737,122.248563 L248.692737,122.248563 L248.558075,122.156069 L248.558075,122.156069 L248.410072,122.045291 L248.410072,122.045291 L248.253269,121.916301 C248.226654,121.893289 248.199862,121.869521 248.172988,121.844998 L248.011504,121.688823 C247.314005,120.97294 246.688559,119.749115 247.798595,118.043592 C248.619559,116.77553 249.756341,116.064705 250.94576,115.426025 L252.146974,114.791272 C253.585997,114.015066 254.973725,113.108256 255.850802,111.224165 Z M134.363253,0 L134.363253,40.4371458 L134.275197,40.8872084 L95.3937023,40.8872084 L95.3839183,40.4371458 L95.4328382,0 L134.363253,0 Z" fill="#012F55"/>
    <path d="M194.368337,84.9835588 C185.053873,84.8069793 176.638535,90.5178073 173.362155,99.2388023 C178.816511,91.0820068 189.202082,87.8044935 198.350413,91.3529229 C202.577088,93.0749015 208.134382,95.8535489 212.537169,94.3663855 C208.349929,88.4900174 201.583912,84.9958819 194.368337,84.9835588 L194.368337,84.9835588 Z" fill="#96D8E9"/>
    <path d="M238.484256,104.121003 C238.484256,99.3562099 235.891504,98.2506214 230.510321,96.2938275 C226.518461,94.9045038 221.988483,93.3390687 218.691285,89.0341221 C218.045544,88.1829168 217.448721,87.2240878 216.812763,86.206555 C215.388041,83.5711546 213.456144,81.243567 211.128277,79.3577763 C207.987623,77.0487595 203.868572,75.9236031 198.526524,75.9236031 C187.807463,75.9311078 178.150617,82.4011944 174.066601,92.3117519 C179.229566,85.1477577 187.809865,81.2661421 196.599226,82.1182851 C205.388588,82.9704281 213.063437,88.4280069 216.75406,96.450371 C218.597961,99.4929526 222.234391,100.945928 225.667256,100.011736 C230.921247,98.8865794 230.55924,103.856836 238.49404,105.539679 L238.484256,104.121003 Z" fill="#48C4E5"/>
  </g>
</svg>

<svg width="256" height="160" xmlns="http://www.w3.org/2000/svg" preserveAspectRatio="xMidYMid"><path d="m39.37 0 55.965 94.22.049-42.649 32.473 50.76-33.412 52.51-55.387-89.885-.128 94.102H0V0h39.37Zm94.895 44.468 16.203 25.438.205.353a57.217 57.217 0 0 1 47.854-25.79c31.247 0 56.655 26.446 57.274 57.582l.01 1.052h-.029v.396a7.535 7.535 0 0 1-15.058.224l-.009-.277-.004-.358c-.125-4.924-2.833-6.922-6.39-8.395l-.526-.213-.537-.206-.547-.202-2.838-1.007-.58-.213-.58-.22-.581-.229-.29-.119-.58-.246-.575-.26c-2.295-1.067-4.49-2.496-6.235-4.77l-.204-.273-.204-.285-.304-.447-.408-.63-1.29-2.064-.47-.728-.37-.553-.258-.371-.403-.558-.28-.372-.292-.372-.15-.185-.309-.368c-3.04-3.553-7.799-6.745-17.003-6.745a28.687 28.687 0 0 0-28.696 28.696 7.475 7.475 0 0 0 .751 3.126l.149.289 34.244 53.89h-37.767l-16.72-25.233-16.428 25.233H96.284l36.044-56.747-36.934-57.843h38.871Zm121.586 66.756a14.422 14.422 0 0 1-1.096 7.896c-1.322 3.058-3.186 3.61-4.428 3.582l-.206-.01-.193-.02-.179-.026-.237-.048-.196-.053-.253-.087-.092-.042-.111-.063-.167-.104-.135-.093-.148-.11-.157-.13a4.012 4.012 0 0 1-.08-.071l-.161-.156c-.698-.716-1.323-1.94-.213-3.645.82-1.268 1.957-1.98 3.147-2.618l1.201-.635c1.439-.776 2.827-1.683 3.704-3.567ZM134.363 0v40.437l-.088.45H95.394l-.01-.45L95.433 0h38.93Z" fill="#012F55"/><path d="M194.368 84.984a21.994 21.994 0 0 0-21.006 14.255 20.947 20.947 0 0 1 24.988-7.886c4.227 1.722 9.784 4.5 14.187 3.013a22.356 22.356 0 0 0-18.169-9.382Z" fill="#96D8E9"/><path d="M238.484 104.121c0-4.765-2.592-5.87-7.974-7.827-3.992-1.39-8.522-2.955-11.819-7.26-.645-.851-1.242-1.81-1.878-2.827a22.718 22.718 0 0 0-5.685-6.85c-3.14-2.308-7.26-3.433-12.601-3.433a26.475 26.475 0 0 0-24.46 16.388 24.822 24.822 0 0 1 42.687 4.138 7.974 7.974 0 0 0 8.913 3.562c5.254-1.125 4.892 3.845 12.827 5.528l-.01-1.419Z" fill="#48C4E5"/></svg>
